view/frontend/web/svg/flags/gr.svg

<svg width="24" height="24" viewbox="0 0 20 15" viewBox="0 0 20 15" fill="none" xmlns="http://www.w3.org/2000/svg">
<g clip-path="url(#clip0_270_60915)">
<rect width="20" height="15" fill="white"/>
<path fill-rule="evenodd" clip-rule="evenodd" d="M0 0H20V15H0V0Z" fill="#F7FCFF"/>
<rect x="0.016983" y="3.4375" width="20" height="1.875" fill="#4564F9"/>
<path fill-rule="evenodd" clip-rule="evenodd" d="M0 0H20V1.875H0V0Z" fill="#4564F9"/>
<rect x="-0.0367889" y="6.875" width="20" height="1.875" fill="#4564F9"/>
<rect x="0.0697937" y="10.25" width="20" height="1.875" fill="#4564F9"/>
<rect x="0.0634308" y="13.4375" width="20" height="1.875" fill="#4564F9"/>
<path fill-rule="evenodd" clip-rule="evenodd" d="M0 0H10V8.75H0V0Z" fill="#4564F9"/>
<path fill-rule="evenodd" clip-rule="evenodd" d="M4.04442 0H6.02211V3.4375H10V5.80399H6.02211V9.375H4.04442V5.80399H0V3.4375H4.04442V0Z" fill="#F7FCFF"/>
</g>
<defs>
<clipPath id="clip0_270_60915">
<rect width="20" height="15" fill="white"/>
</clipPath>
</defs>
</svg>

<svg width="24" height="24" viewbox="0 0 20 15" fill="none" xmlns="http://www.w3.org/2000/svg">
  <mask id="a" maskUnits="userSpaceOnUse" x="0" y="0" width="20" height="15">
    <path fill="#fff" d="M0 0h20v15H0z"/>
  </mask>
  <g mask="url(#a)">
    <path fill-rule="evenodd" clip-rule="evenodd" d="M0 0h20v15H0V0z" fill="#F7FCFF"/>
    <path fill="#4564F9" d="M.017 3.438h20v1.875h-20z"/>
    <path fill-rule="evenodd" clip-rule="evenodd" d="M0 0h20v1.875H0V0z" fill="#4564F9"/>
    <path fill="#4564F9" d="M-.037 6.875h20V8.75h-20zM.07 10.25h20v1.875h-20zm-.007 3.188h20v1.875h-20z"/>
    <path fill-rule="evenodd" clip-rule="evenodd" d="M0 0h10v8.75H0V0z" fill="#4564F9"/>
    <path fill-rule="evenodd" clip-rule="evenodd" d="M4.044 0h1.978v3.438H10v2.366H6.022v3.571H4.044V5.804H0V3.437h4.044V0z" fill="#F7FCFF"/>
  </g>
</svg>
